X:198
T:London Lasses
Z: id:dc-reel-181
M:C
L:1/8
K:G Major
G2BG dGBd|eaag efg2|G2BG dGBd|egdB AGEF|!
G2BG dGBd|eaag efga|bgag egfa|gedB AGED:|!
g2fg edBc|dGG2 dGBd|g2fg efge|dBGA BAA2|!
g2fg efge|dBB2 dega|bgag egfa|gedB AGED:|!

